!!!OTL: Der Bettelvogt.
!!!OTL-incipit: ICH WAR NOCH SO JUNG UND WAR DOCH SO ARM
!!!ARE: Europa, Mitteleuropa, Deutschland, Franken
!!!SCT: Z1072
!!!TXL: @@DE
!!!YEM: Copyright 1995, estate of Helmut Schaffrath.
**kern	**text
*ICvox	*
*M4/4	*
*met(c)	*
*k[f#c#g#]	*
*A:	*
!LO:TX:a:t=Aus Franken.	!
{4e	Jch
=1	=1
4a	war
8a	noch
8a	ſo
4.a	jung
8cc#/	und
=2	=2
8cc#/L	war
8bJ	.
8b/	doch
8b/	ſo
4.b/}	arm,
{8dd/	kein
=3	=3
8cc#/L	Geld
8bJ	.
8cc#/	hatt'
8dd/	ich
8ff#/L	gar
8eeJ	.
8ee/	nicht,
8ee/	daß
=4	=4
8ee/L	Gott
8ddJ	.
8dd/	ſich
8dd/	er-
4cc#;	-barm,
8r}	.
{8ee/	ſo
=5	=5
8ee/	nahm
8cc#/	ich
8cc#/	mei-
8cc#/	-nen
4.dd/	Stab
8dd/	und
=6	=6
8dd/	mei-
8b/	-nen
8b/	Bettel-
8b/	.
4.cc#/}	-ſack,
{8e	und
=7	=7
8f#	pfiff
8f#	das
8g#	Va-
8g#	-ter-
4a	-un-
8b/	-ſer
8b/	den
=8	=8
8cc#/	lie-
8cc#/	-ben
8dd/	lan-
8g#	-gen
4a}	Tag.
==	==
!!!AGN: Romanze, Ballade
!!!ONB: ESAC (Essen Associative Code) Database: ZUCCAL
!!!AMT: simple quadruple
!!!AIN: vox
!!!EED: Helmut Schaffrath
!!!EEV: 1.0
!!!GTL: II. Gau- Leuschen.
!!!URL-scan: https://www.digitale-sammlungen.de/de/view/bsb11160573?page=156
!!!ENC: Anna Maria Matuszewska
!!!EEV: 2025/03/02
*-	*-
